!!!OTL: Qhude
!!!XEN: The Cock
!!!CNT: African -- sub-Saharan -- Xhosa
**kern
*k[f#c#]
*M4/4
*MM100
=1
8d
8d
8f#
8a
8a
16a
16f#
=2
8.a
16g
8f#
[8B
2B]
=3
4r
8d
8d
8f#
8a
8a
16a
16f#
=4
2.a
4r
=5
4r
8d
8d
8f#
8a
8a
16a
16f#
=6
8.a
16g
8f#
[8B
2B]
=7
4r
8d
8d
8f#
8a
12a
12f#
12d
=8
4.e
8A
4r
8ccn
8cc
=9
8ccn
4a
16A
16A
2r
=10
4.b
8a
6b
6a
6g
=11
8f#
8e
8f#
[8A
8A]
8f#
8g
8a
=12
4a
8e
8f#
8g
8d
[4d
=13
4.a]
16A
[16A
4A]
4r
=14
4.b
8a
6b
6a
6g
=15
8f#
8e
8f#
[8A
8A]
8f#
8g
8a
=16
4a
8e
8f#
8g
8d
8e
8d
=17
4.d
[8A
4A]
4r
!! Repeat the next section.
=18
8a
4a
8f#
2a
=19
8b
4b
8g
2b
=20
8a
4a
8f#
2a
=21
8a
4a
8e
2a
!! Repeating.
=22
8a
4a
8f#
2a
=23
8b
4b
8g
2b
=24
8a
4a
8f#
2a
=25
8a
4a
8e
2a
==
*-
!!!OPR: Miriam Makeba, "The World of African Song"
!!!PPP: Chicago
!!!PPR: Quadrangle Press (12 East Delaware Place)
!!!PDT: 1971///
!!!PPG: 77
!!!ENC: David Huron
!!!EMD: 1998/9/29/ Paul von Hippel updated this file in the following ways:
!!!EMD:  (1) changed the representation of slurs from curly braces to parentheses 
!!!EMD:  (2) changed freeform comments into reference records and tandem interpretations
!!!EMD:  (3) changed final barline from triple (===) to double (==)
!!!EMD:  (4) added key signature from printed source
!!!EEV: Version 2.0
